svgs/sharp-light/equals.svg

<svg xmlns="http://www.w3.org/2000/svg" viewBox="0 0 448 512"><!--! Font Awesome Pro 6.6.0 by @fontawesome - https://fontawesome.com License - https://fontawesome.com/license (Commercial License) Copyright 2024 Fonticons, Inc. --><path d="M32 144l-16 0 0 32 16 0 384 0 16 0 0-32-16 0L32 144zm0 192l-16 0 0 32 16 0 384 0 16 0 0-32-16 0L32 336z"/></svg>

<svg xmlns="http://www.w3.org/2000/svg" viewBox="0 0 448 512"><!--! Font Awesome Pro 6.4.0 by @fontawesome - https://fontawesome.com License - https://fontawesome.com/license (Commercial License) Copyright 2023 Fonticons, Inc. --><path d="M32 144H16v32H32 416h16V144H416 32zm0 192H16v32H32 416h16V336H416 32z"/></svg>
